;FLAVOR:Marlin
;TIME:1234
;Filament used: 0.628574m
;Layer height: 0.16
;Generated with Cura_SteamEngine 4.0.0
M140 S60
M105
M190 S60
M104 S205
M105
M109 S205
M82 ;absolute extrusion mode
; Ender 3 Custom Start G-code
G28 ; Home all axes
G92 E0 ; Reset Extruder
G1 Z2.0 F3000 ; Move Z Axis up little to prevent scratching of Heat Bed
G1 X0.1 Y20 Z0.3 F5000.0 ; Move to start position
G1 X0.1 Y200.0 Z0.3 F1500.0 E15 ; Draw the first line
G1 X0.4 Y200.0 Z0.3 F5000.0 ; Move to side a little
G1 X0.4 Y20 Z0.3 F1500.0 E30 ; Draw the second line
G92 E0 ; Reset Extruder
G1 Z2.0 F3000 ; Move Z Axis up little to prevent scratching of Heat Bed
; End of custom start GCode
G92 E0
G1 F2400 E-5
;LAYER_COUNT:3
;LAYER:0
M107
M204 S5000
M205 X30 Y30
;MESH:Bed_leveling.stl
G0 F3600 X17.8 Y17.8 Z0.2
M204 S500
M205 X20 Y20
;TYPE:WALL-OUTER
G1 F2400 E0
G1 F1800 X17.8 Y22.2 E0.14634
G1 X212.7 Y22.2 E6.62874
G1 X212.8 Y22.2 E6.63207
G1 X212.8 Y22.3 E6.63423
G1 X212.8 Y212.7 E12.96696
G1 X212.8 Y212.8 E12.97029
G1 X212.7 Y212.8 E12.97245
G1 X22.3 Y212.8 E19.30518
G1 X22.2 Y212.8 E19.30851
G1 X22.2 Y212.7 E19.31067
G1 X22.2 Y32.3 E25.3108
G1 X22.2 Y32.2 E25.31413
G1 X22.3 Y32.2 E25.31629
G1 X202.7 Y32.2 E31.31642
G1 X202.8 Y32.2 E31.31975
G1 X202.8 Y32.3 E31.32191
G1 X202.8 Y202.7 E36.98944
G1 X202.8 Y202.8 E36.99276
G1 X202.7 Y202.8 E36.99493
G1 X32.3 Y202.8 E42.66246
G1 X32.2 Y202.8 E42.66578
G1 X32.2 Y202.7 E42.66795
G1 X32.2 Y42.3 E48.00287
G1 X32.2 Y42.2 E48.0062
G1 X32.3 Y42.2 E48.00836
G1 X192.7 Y42.2 E53.34329
G1 X192.8 Y42.2 E53.34661
G1 X192.8 Y42.3 E53.34878
G1 X192.8 Y192.7 E58.3511
G1 X192.8 Y192.8 E58.35443
G1 X192.7 Y192.8 E58.35659
G1 X42.3 Y192.8 E63.35892
G1 X42.2 Y192.8 E63.36224
G1 X42.2 Y192.7 E63.36441
G1 X42.2 Y52.3 E68.03413
G1 X42.2 Y52.2 E68.03745
G1 X42.3 Y52.2 E68.03962
G1 X182.7 Y52.2 E72.70934
G1 X182.8 Y52.2 E72.71267
G1 X182.8 Y52.3 E72.71483
G1 X182.8 Y182.7 E77.05195
G1 X182.8 Y182.8 E77.05528
G1 X182.7 Y182.8 E77.05744
G1 X52.3 Y182.8 E81.39456
G1 X52.2 Y182.8 E81.39789
G1 X52.2 Y182.7 E81.40005
G1 X52.2 Y62.3 E85.40457
G1 X52.2 Y62.2 E85.4079
G1 X52.3 Y62.2 E85.41006
G1 X172.7 Y62.2 E89.41458
G1 X172.8 Y62.2 E89.41791
G1 X172.8 Y62.3 E89.42007
G1 X172.8 Y172.7 E93.09199
G1 X172.8 Y172.8 E93.09532
G1 X172.7 Y172.8 E93.09748
G1 X62.3 Y172.8 E96.7694
G1 X62.2 Y172.8 E96.77273
G1 X62.2 Y172.7 E96.77489
G1 X62.2 Y72.3 E100.11421
G1 X62.2 Y72.2 E100.11754
G1 X62.3 Y72.2 E100.1197
G1 X162.7 Y72.2 E103.45902
G1 X162.8 Y72.2 E103.46234
G1 X162.8 Y72.3 E103.46451
G1 X162.8 Y162.7 E106.47122
G1 X162.8 Y162.8 E106.47455
G1 X162.7 Y162.8 E106.47671
G1 X72.3 Y162.8 E109.48343
G1 X72.2 Y162.8 E109.48676
G1 X72.2 Y162.7 E109.48892
G1 X72.2 Y82.3 E112.16303
G1 X72.2 Y82.2 E112.16636
G1 X72.3 Y82.2 E112.16852
G1 X152.7 Y82.2 E114.84264
G1 X152.8 Y82.2 E114.84597
G1 X152.8 Y82.3 E114.84813
G1 X152.8 Y152.7 E117.18964
G1 X152.8 Y152.8 E117.19297
G1 X152.7 Y152.8 E117.19513
G1 X82.3 Y152.8 E119.53665
G1 X82.2 Y152.8 E119.53997
G1 X82.2 Y152.7 E119.54214
G1 X82.2 Y92.3 E121.55105
G1 X82.2 Y92.2 E121.55437
G1 X82.3 Y92.2 E121.55654
G1 X142.7 Y92.2 E123.56545
G1 X142.8 Y92.2 E123.56878
G1 X142.8 Y92.3 E123.57094
G1 X142.8 Y142.7 E125.24725
G1 X142.8 Y142.8 E125.25058
G1 X142.7 Y142.8 E125.25274
G1 X92.3 Y142.8 E126.92905
G1 X92.2 Y142.8 E126.93238
G1 X92.2 Y142.7 E126.93454
G1 X92.2 Y102.3 E128.27825
G1 X92.2 Y102.2 E128.28158
G1 X92.3 Y102.2 E128.28374
G1 X132.7 Y102.2 E129.62745
G1 X132.8 Y102.2 E129.63078
G1 X132.8 Y102.3 E129.63294
G1 X132.8 Y132.7 E130.64405
G1 X132.8 Y132.8 E130.64738
G1 X132.7 Y132.8 E130.64954
G1 X102.3 Y132.8 E131.66065
G1 X102.2 Y132.8 E131.66397
G1 X102.2 Y132.7 E131.66614
G1 X102.2 Y112.3 E132.34464
G1 X102.2 Y112.2 E132.34797
G1 X102.3 Y112.2 E132.35013
G1 X122.7 Y112.2 E133.02864
G1 X122.8 Y112.2 E133.03197
G1 X122.8 Y112.3 E133.03413
G1 X122.8 Y122.7 E133.38004
G1 X122.8 Y122.8 E133.38336
G1 X122.7 Y122.8 E133.38553
G1 X117.3 Y122.8 E133.56513
G1 X117.2 Y122.8 E133.56846
G1 X117.2 Y122.7 E133.57062
G1 X117.2 Y117.8 E133.7336
G1 X107.8 Y117.8 E134.04624
G1 X107.8 Y127.2 E134.35889
G1 X127.2 Y127.2 E135.00413
G1 X127.2 Y107.8 E135.64938
G1 X97.8 Y107.8 E136.62723
G1 X97.8 Y137.2 E137.60508
G1 X137.2 Y137.2 E138.91553
G1 X137.2 Y97.8 E140.22597
G1 X87.8 Y97.8 E141.86903
G1 X87.8 Y147.2 E143.51208
G1 X147.2 Y147.2 E145.48773
G1 X147.2 Y87.8 E147.46338
G1 X77.8 Y87.8 E149.77163
G1 X77.8 Y157.2 E152.07989
G1 X157.2 Y157.2 E154.72074
G1 X157.2 Y77.8 E157.3616
G1 X67.8 Y77.8 E160.33505
G1 X67.8 Y167.2 E163.30851
G1 X167.2 Y167.2 E166.61457
G1 X167.2 Y67.8 E169.92062
G1 X57.8 Y67.8 E173.55928
G1 X57.8 Y177.2 E177.19794
G1 X177.2 Y177.2 E181.1692
G1 X177.2 Y57.8 E185.14046
G1 X47.8 Y57.8 E189.44432
G1 X47.8 Y187.2 E193.74818
G1 X187.2 Y187.2 E198.38465
G1 X187.2 Y47.8 E203.02111
G1 X37.8 Y47.8 E207.99017
G1 X37.8 Y197.2 E212.95924
G1 X197.2 Y197.2 E218.2609
G1 X197.2 Y37.8 E223.56257
G1 X27.8 Y37.8 E229.19684
G1 X27.8 Y207.2 E234.8311
G1 X207.2 Y207.2 E240.79797
G1 X207.2 Y27.8 E246.76484
G1 X17.8 Y27.8 E253.06431
G1 X17.8 Y217.2 E259.36378
G1 X217.2 Y217.2 E265.99585
G1 X217.2 Y17.8 E272.62792
G1 X17.8 Y17.8 E279.25999
M204 S5000
M205 X30 Y30
G0 F3600 X17.8 Y18
G0 X17.7 Y18
G0 X17.772 Y18.491
G0 X17.772 Y22.228
G0 X212.772 Y22.228
G0 X212.772 Y212.772
G0 X22.228 Y212.772
G0 X22.228 Y32.228
G0 X202.772 Y32.228
G0 X202.772 Y202.772
G0 X32.228 Y202.772
G0 X32.228 Y42.228
G0 X192.772 Y42.228
G0 X192.772 Y192.772
G0 X42.228 Y192.772
G0 X42.228 Y52.228
G0 X182.772 Y52.228
G0 X182.772 Y182.772
G0 X52.228 Y182.772
G0 X52.228 Y62.228
G0 X172.772 Y62.228
G0 X172.772 Y172.772
G0 X62.228 Y172.772
G0 X62.228 Y72.228
G0 X162.772 Y72.228
G0 X162.772 Y162.772
G0 X72.228 Y162.772
G0 X72.228 Y82.228
G0 X152.772 Y82.228
G0 X152.772 Y152.772
G0 X82.228 Y152.772
G0 X82.228 Y92.228
G0 X142.772 Y92.228
G0 X142.772 Y142.772
G0 X92.228 Y142.772
G0 X92.228 Y102.228
G0 X132.772 Y102.228
G0 X132.772 Y132.772
G0 X102.228 Y132.772
G0 X102.228 Y112.228
G0 X122.772 Y112.228
G0 X122.772 Y122.772
G0 X117.23 Y122.77
G0 X117.3 Y122.7
M204 S500
M205 X20 Y20
G1 F1800 X122.7 Y122.7 E279.30489
G1 X122.7 Y112.3 E279.39137
G1 X102.3 Y112.3 E279.561
G1 X102.3 Y132.7 E279.73062
G1 X132.7 Y132.7 E279.9834
G1 X132.7 Y102.3 E280.23618
G1 X92.3 Y102.3 E280.5721
G1 X92.3 Y142.7 E280.90803
G1 X142.7 Y142.7 E281.32711
G1 X142.7 Y92.3 E281.74619
G1 X82.3 Y92.3 E282.24841
G1 X82.3 Y152.7 E282.75064
G1 X152.7 Y152.7 E283.33602
G1 X152.7 Y82.3 E283.9214
G1 X72.3 Y82.3 E284.58993
G1 X72.3 Y162.7 E285.25846
G1 X162.7 Y162.7 E286.01014
G1 X162.7 Y72.3 E286.76181
G1 X62.3 Y72.3 E287.59664
G1 X62.3 Y172.7 E288.43147
G1 X172.7 Y172.7 E289.34945
G1 X172.7 Y62.3 E290.26743
G1 X52.3 Y62.3 E291.26856
G1 X52.3 Y182.7 E292.26969
G1 X182.7 Y182.7 E293.35397
G1 X182.7 Y52.3 E294.43825
G1 X42.3 Y52.3 E295.60568
G1 X42.3 Y192.7 E296.77312
G1 X192.7 Y192.7 E298.0237
G1 X192.7 Y42.3 E299.27428
G1 X32.3 Y42.3 E300.60801
G1 X32.3 Y202.7 E301.94174
G1 X202.7 Y202.7 E303.35862
G1 X202.7 Y32.3 E304.7755
G1 X22.3 Y32.3 E306.27554
G1 X22.3 Y212.7 E307.77557
G1 X212.7 Y212.7 E309.35875
G1 X212.7 Y22.3 E310.94193
G1 X17.8 Y22.3 E312.56253
G1 X17.7 Y22.3 E312.5647
G1 X17.7 Y22.2 E312.56686
G1 X17.7 Y17.8 E312.60345
G1 X17.7 Y17.7 E312.60561
G1 X17.8 Y17.7 E312.60777
G1 X217.2 Y17.7 E314.26579
G1 X217.3 Y17.7 E314.26796
G1 X217.3 Y17.8 E314.27012
G1 X217.3 Y217.2 E315.92814
G1 X217.3 Y217.3 E315.9303
G1 X217.2 Y217.3 E315.93247
G1 X17.8 Y217.3 E317.59048
G1 X17.7 Y217.3 E317.59265
G1 X17.7 Y217.2 E317.59481
G1 X17.7 Y27.8 E319.16968
G1 X17.7 Y27.7 E319.17184
G1 X17.8 Y27.7 E319.17401
G1 X207.2 Y27.7 E320.74887
G1 X207.3 Y27.7 E320.75104
G1 X207.3 Y27.8 E320.7532
G1 X207.3 Y207.2 E322.24492
G1 X207.3 Y207.3 E322.24708
G1 X207.2 Y207.3 E322.24925
G1 X27.8 Y207.3 E323.74096
G1 X27.7 Y207.3 E323.74313
G1 X27.7 Y207.2 E323.74529
G1 X27.7 Y37.8 E325.15386
G1 X27.7 Y37.7 E325.15602
G1 X27.8 Y37.7 E325.15819
G1 X197.2 Y37.7 E326.56675
G1 X197.3 Y37.7 E326.56892
G1 X197.3 Y37.8 E326.57108
G1 X197.3 Y197.2 E327.8965
G1 X197.3 Y197.3 E327.89866
G1 X197.2 Y197.3 E327.90083
G1 X37.8 Y197.3 E329.22624
G1 X37.7 Y197.3 E329.22841
G1 X37.7 Y197.2 E329.23057
G1 X37.7 Y47.8 E330.47284
G1 X37.7 Y47.7 E330.475
G1 X37.8 Y47.7 E330.47716
G1 X187.2 Y47.7 E331.71943
G1 X187.3 Y47.7 E331.72159
G1 X187.3 Y47.8 E331.72376
G1 X187.3 Y187.2 E332.88287
G1 X187.3 Y187.3 E332.88504
G1 X187.2 Y187.3 E332.8872
G1 X47.8 Y187.3 E334.04632
G1 X47.7 Y187.3 E334.04848
G1 X47.7 Y187.2 E334.05065
G1 X47.7 Y57.8 E335.12661
G1 X47.7 Y57.7 E335.12878
G1 X47.8 Y57.7 E335.13094
G1 X177.2 Y57.7 E336.20691
G1 X177.3 Y57.7 E336.20907
G1 X177.3 Y57.8 E336.21123
G1 X177.3 Y177.2 E337.20405
G1 X177.3 Y177.3 E337.20621
G1 X177.2 Y177.3 E337.20838
G1 X57.8 Y177.3 E338.20119
G1 X57.7 Y177.3 E338.20336
G1 X57.7 Y177.2 E338.20552
G1 X57.7 Y67.8 E339.11518
G1 X57.7 Y67.7 E339.11735
G1 X57.8 Y67.7 E339.11951
G1 X167.2 Y67.7 E340.02918
G1 X167.3 Y67.7 E340.03134
G1 X167.3 Y67.8 E340.0335
G1 X167.3 Y167.2 E340.86002
G1 X167.3 Y167.3 E340.86218
G1 X167.2 Y167.3 E340.86435
G1 X67.8 Y167.3 E341.69086
G1 X67.7 Y167.3 E341.69303
G1 X67.7 Y167.2 E341.69519
G1 X67.7 Y77.8 E342.43855
G1 X67.7 Y77.7 E342.44072
G1 X67.8 Y77.7 E342.44288
G1 X157.2 Y77.7 E343.18625
G1 X157.3 Y77.7 E343.18841
G1 X157.3 Y77.8 E343.19057
G1 X157.3 Y157.2 E343.85079
G1 X157.3 Y157.3 E343.85295
G1 X157.2 Y157.3 E343.85511
G1 X77.8 Y157.3 E344.51533
G1 X77.7 Y157.3 E344.51749
G1 X77.7 Y157.2 E344.51966
G1 X77.7 Y87.8 E345.09672
G1 X77.7 Y87.7 E345.09888
G1 X77.8 Y87.7 E345.10105
G1 X147.2 Y87.7 E345.67811
G1 X147.3 Y87.7 E345.68027
G1 X147.3 Y87.8 E345.68244
G1 X147.3 Y147.2 E346.17635
G1 X147.3 Y147.3 E346.17852
G1 X147.2 Y147.3 E346.18068
G1 X87.8 Y147.3 E346.67459
G1 X87.7 Y147.3 E346.67676
G1 X87.7 Y147.2 E346.67892
G1 X87.7 Y97.8 E347.08968
G1 X87.7 Y97.7 E347.09185
G1 X87.8 Y97.7 E347.09401
G1 X137.2 Y97.7 E347.50477
G1 X137.3 Y97.7 E347.50694
G1 X137.3 Y97.8 E347.5091
G1 X137.3 Y137.2 E347.83671
G1 X137.3 Y137.3 E347.83888
G1 X137.2 Y137.3 E347.84104
G1 X97.8 Y137.3 E348.16865
G1 X97.7 Y137.3 E348.17082
G1 X97.7 Y137.2 E348.17298
G1 X97.7 Y107.8 E348.41744
G1 X97.7 Y107.7 E348.41961
G1 X97.8 Y107.7 E348.42177
G1 X127.2 Y107.7 E348.66623
G1 X127.3 Y107.7 E348.6684
G1 X127.3 Y107.8 E348.67056
G1 X127.3 Y127.2 E348.83187
G1 X127.3 Y127.3 E348.83404
G1 X127.2 Y127.3 E348.8362
G1 X107.8 Y127.3 E348.99751
G1 X107.7 Y127.3 E348.99968
G1 X107.7 Y127.2 E349.00184
G1 X107.7 Y117.8 E349.08
G1 X107.7 Y117.7 E349.08217
G1 X107.8 Y117.7 E349.08433
G1 X117.2 Y117.7 E349.16249
G1 X117.3 Y117.7 E349.16466
G1 X117.3 Y117.8 E349.16682
G1 X117.3 Y122.7 E349.20756
M204 S5000
M205 X30 Y30
G0 F3600 X117.5 Y122.7
;MESH:NONMESH
G0 X117.5 Y122.8
G0 X122.728 Y122.728
G0 X122.728 Y112.272
G0 X102.272 Y112.272
G0 X102.272 Y132.728
G0 X132.728 Y132.728
G0 X132.728 Y102.272
G0 X92.272 Y102.272
G0 X92.272 Y142.728
G0 X142.728 Y142.728
G0 X142.728 Y92.272
G0 X82.272 Y92.272
G0 X82.272 Y152.728
G0 X152.728 Y152.728
G0 X152.728 Y82.272
G0 X72.272 Y82.272
G0 X72.272 Y162.728
G0 X162.728 Y162.728
G0 X162.728 Y72.272
G0 X62.272 Y72.272
G0 X62.272 Y172.728
G0 X172.728 Y172.728
G0 X172.728 Y62.272
G0 X52.272 Y62.272
G0 X52.272 Y182.728
G0 X182.728 Y182.728
G0 X182.728 Y52.272
G0 X42.272 Y52.272
G0 X42.272 Y192.728
G0 X192.728 Y192.728
G0 X192.728 Y42.272
G0 X32.272 Y42.272
G0 X32.272 Y202.728
G0 X202.728 Y202.728
G0 X202.728 Y32.272
G0 X22.272 Y32.272
G0 X22.272 Y212.728
G0 X212.728 Y212.728
G0 X212.728 Y22.272
G0 X22.041 Y22.27
G0 X17.73 Y17.73
G0 X17.8 Y17.8
;TIME_ELAPSED:705.027544
;LAYER:1
M140 S60
M106 S255
;MESH:Bed_leveling.stl
G0 F5400 X17.8 Y17.8 Z0.36
M204 S500
M205 X20 Y20
;TYPE:WALL-OUTER
G1 F2100 X17.8 Y22.2 E349.32464
G1 X212.7 Y22.2 E354.51056
G1 X212.8 Y22.2 E354.51322
G1 X212.8 Y22.3 E354.51495
G1 X212.8 Y212.7 E359.58114
G1 X212.8 Y212.8 E359.5838
G1 X212.7 Y212.8 E359.58553
G1 X22.3 Y212.8 E364.65171
G1 X22.2 Y212.8 E364.65437
G1 X22.2 Y212.7 E364.6561
G1 X22.2 Y32.3 E369.45621
G1 X22.2 Y32.2 E369.45887
G1 X22.3 Y32.2 E369.4606
G1 X202.7 Y32.2 E374.2607
G1 X202.8 Y32.2 E374.26336
G1 X202.8 Y32.3 E374.26509
G1 X202.8 Y202.7 E378.79911
G1 X202.8 Y202.8 E378.80178
G1 X202.7 Y202.8 E378.80351
G1 X32.3 Y202.8 E383.33753
G1 X32.2 Y202.8 E383.34019
G1 X32.2 Y202.7 E383.34192
G1 X32.2 Y42.3 E387.60986
G1 X32.2 Y42.2 E387.61252
G1 X32.3 Y42.2 E387.61425
G1 X192.7 Y42.2 E391.88219
G1 X192.8 Y42.2 E391.88485
G1 X192.8 Y42.3 E391.88659
G1 X192.8 Y192.7 E395.88844
G1 X192.8 Y192.8 E395.89111
G1 X192.7 Y192.8 E395.89284
G1 X42.3 Y192.8 E399.8947
G1 X42.2 Y192.8 E399.89736
G1 X42.2 Y192.7 E399.89909
G1 X42.2 Y52.3 E403.63487
G1 X42.2 Y52.2 E403.63753
G1 X42.3 Y52.2 E403.63926
G1 X182.7 Y52.2 E407.37504
G1 X182.8 Y52.2 E407.3777
G1 X182.8 Y52.3 E407.37943
G1 X182.8 Y182.7 E410.84913
G1 X182.8 Y182.8 E410.85179
G1 X182.7 Y182.8 E410.85352
G1 X52.3 Y182.8 E414.32322
G1 X52.2 Y182.8 E414.32588
G1 X52.2 Y182.7 E414.32761
G1 X52.2 Y62.3 E417.53122
G1 X52.2 Y62.2 E417.53388
G1 X52.3 Y62.2 E417.53562
G1 X172.7 Y62.2 E420.73923
G1 X172.8 Y62.2 E420.74189
G1 X172.8 Y62.3 E420.74362
G1 X172.8 Y172.7 E423.68116
G1 X172.8 Y172.8 E423.68382
G1 X172.7 Y172.8 E423.68555
G1 X62.3 Y172.8 E426.62309
G1 X62.2 Y172.8 E426.62575
G1 X62.2 Y172.7 E426.62748
G1 X62.2 Y72.3 E429.29893
G1 X62.2 Y72.2 E429.30159
G1 X62.3 Y72.2 E429.30332
G1 X162.7 Y72.2 E431.97478
G1 X162.8 Y72.2 E431.97744
G1 X162.8 Y72.3 E431.97917
G1 X162.8 Y162.7 E434.38454
G1 X162.8 Y162.8 E434.3872
G1 X162.7 Y162.8 E434.38894
G1 X72.3 Y162.8 E436.79431
G1 X72.2 Y162.8 E436.79697
G1 X72.2 Y162.7 E436.7987
G1 X72.2 Y82.3 E438.93799
G1 X72.2 Y82.2 E438.94065
G1 X72.3 Y82.2 E438.94238
G1 X152.7 Y82.2 E441.08168
G1 X152.8 Y82.2 E441.08434
G1 X152.8 Y82.3 E441.08607
G1 X152.8 Y152.7 E442.95928
G1 X152.8 Y152.8 E442.96194
G1 X152.7 Y152.8 E442.96367
G1 X82.3 Y152.8 E444.83688
G1 X82.2 Y152.8 E444.83954
G1 X82.2 Y152.7 E444.84127
G1 X82.2 Y92.3 E446.4484
G1 X82.2 Y92.2 E446.45106
G1 X82.3 Y92.2 E446.4528
G1 X142.7 Y92.2 E448.05993
G1 X142.8 Y92.2 E448.06259
G1 X142.8 Y92.3 E448.06432
G1 X142.8 Y142.7 E449.40537
G1 X142.8 Y142.8 E449.40803
G1 X142.7 Y142.8 E449.40976
G1 X92.3 Y142.8 E450.75081
G1 X92.2 Y142.8 E450.75347
G1 X92.2 Y142.7 E450.7552
G1 X92.2 Y102.3 E451.83017
G1 X92.2 Y102.2 E451.83283
G1 X92.3 Y102.2 E451.83456
G1 X132.7 Y102.2 E452.90953
G1 X132.8 Y102.2 E452.91219
G1 X132.8 Y102.3 E452.91392
G1 X132.8 Y132.7 E453.7228
G1 X132.8 Y132.8 E453.72546
G1 X132.7 Y132.8 E453.7272
G1 X102.3 Y132.8 E454.53608
G1 X102.2 Y132.8 E454.53874
G1 X102.2 Y132.7 E454.54047
G1 X102.2 Y112.3 E455.08328
G1 X102.2 Y112.2 E455.08594
G1 X102.3 Y112.2 E455.08767
G1 X122.7 Y112.2 E455.63048
G1 X122.8 Y112.2 E455.63314
G1 X122.8 Y112.3 E455.63487
G1 X122.8 Y122.7 E455.91159
G1 X122.8 Y122.8 E455.91425
G1 X122.7 Y122.8 E455.91599
G1 X117.3 Y122.8 E456.05967
G1 X117.2 Y122.8 E456.06233
G1 X117.2 Y122.7 E456.06406
G1 X117.2 Y117.8 E456.19444
G1 X107.8 Y117.8 E456.44456
G1 X107.8 Y127.2 E456.69467
G1 X127.2 Y127.2 E457.21087
G1 X127.2 Y107.8 E457.72707
G1 X97.8 Y107.8 E458.50935
G1 X97.8 Y137.2 E459.29162
G1 X137.2 Y137.2 E460.33998
G1 X137.2 Y97.8 E461.38834
G1 X87.8 Y97.8 E462.70278
G1 X87.8 Y147.2 E464.01722
G1 X147.2 Y147.2 E465.59775
G1 X147.2 Y87.8 E467.17827
G1 X77.8 Y87.8 E469.02487
G1 X77.8 Y157.2 E470.87147
G1 X157.2 Y157.2 E472.98416
G1 X157.2 Y77.8 E475.09684
G1 X67.8 Y77.8 E477.47561
G1 X67.8 Y167.2 E479.85437
G1 X167.2 Y167.2 E482.49922
G1 X167.2 Y67.8 E485.14406
G1 X57.8 Y67.8 E488.05499
G1 X57.8 Y177.2 E490.96592
G1 X177.2 Y177.2 E494.14292
G1 X177.2 Y57.8 E497.31993
G1 X47.8 Y57.8 E500.76302
G1 X47.8 Y187.2 E504.20611
G1 X187.2 Y187.2 E507.91528
G1 X187.2 Y47.8 E511.62445
G1 X37.8 Y47.8 E515.5997
G1 X37.8 Y197.2 E519.57495
G1 X197.2 Y197.2 E523.81629
G1 X197.2 Y37.8 E528.05762
G1 X27.8 Y37.8 E532.56503
G1 X27.8 Y207.2 E537.07245
G1 X207.2 Y207.2 E541.84594
G1 X207.2 Y27.8 E546.61944
G1 X17.8 Y27.8 E551.65901
G1 X17.8 Y217.2 E556.69859
G1 X217.2 Y217.2 E562.00424
G1 X217.2 Y17.8 E567.3099
G1 X17.8 Y17.8 E572.61556
M204 S5000
M205 X30 Y30
